X:5
T:Scotch Air. RHu.005
T:Salmon Tails,aka. RHu.005
S:R.Hughes MS,1823,Whitchurch,Shrops.
A:Whitchurch, Shropshire
Z:Neil Brookes 2006
M:4/4
L:1/8
Q:1/2=70
R:Country Dance
K:C
G|G>AG>E G>c c2|e>fe>d c>A A2|G>AG>F G>cc2|e>fd>e c2c2:|!
eg g2faa2|gfed cAA2|e>gg2 faa2|c’bag a3g|!
egg2faa2|g>ed>c cAA2|G>AG>E Gcc2|e>fd>e c2c2|

